X:1
T:Title
%%score 1 { 2 | 3 }
L:1/8
Q:1/4=92
M:3/4
K:C
V:1 treble nm="Grand Piano, Soprano"
V:2 treble nm="Choir Pad, Sabbath School Greeting"
V:3 bass 
V:1
 [CE][DF] [EG][EG] [EG]2 | [Ec]2 [GB][FA] [EG]2 | [EG]2 [DG][DB] [DB]2 | [FG]2 [EG][Ec] [Ec]2 | %4
w: By~Solomon~W.~Straub,~1893 * * * *||||
 [CE][DF] [EG][EG] [EG]2 | [Ec]2 [Ge][Gd] [Fc]2 | [Fc]2 [^Fd][Fc] [GB]2 | D2 [GB][DA] [DG]2 | %8
w: ||||
 [DG]2 [DF]3 [DF] | [DF][DF] [CE]>[FA] [EG]2 | [EG]2 [DF]3 [DF] | [DF][B,D] [CE]>[FA] [EG]2 | %12
w: ||||
 [CE][DF] [EG][EG] [EG]2 | [Ec]2 [Ge][Gd] [Fc]2 | [Fc]2 [_EB][EA] [=EG]2 | [Ec]2 [DB][Fd] [Ec]2- | %16
w: ||||
 [Ec]6 |] %17
w: |
V:2
 G,2 CC C2 | G,2 CC C2 | C2[K:bass] B,G, G,2 | B,2 CG, G,2 | G,2[K:treble] CC C2 | %5
 G,2 C[K:bass]_B, A,2 | A,2 A,A, G,2 | B,2 DC B,2 | B,2 B,3 B, | B,B,[K:treble] C>C C2 | %10
 C2 B,3[K:bass] B, | B,G, G,>C[K:treble] C2 | G,2 CC C2 | G,2 C_B, A,2 | A,2 CC C2 | %15
 G,2 G,G, G,2- | G,6 |] %17
V:3
 C,2 C,C, C,2 | C,2 C,C, C,2 | C,2 .G,2 z2 | G,2 C,C, C,2 | C,2 C,C, C,2 | C,2 C,C, F,2 | %6
 F,2 D,D, D,2 | D,2 D,D, G,,2 | G,2 G,3 G, | G,G, C,>C, C,2 | C,2 G,,3 G,, | G,,G,, C,>C, C,2 | %12
 C,2 C,C, C,2 | C,2 C,C, F,2 | F,2 ^F,F, G,2 | z2 G,,G,, C,2- | C,6 |] %17

